X:1
T:Christmas Bells
T:Christmas Bells
T:Ada Blenkhorn, 1895
T:Emma Louise Ashford
T:Public Domain Courtesy of the Cyber Hymnal™
T:Public Domain Courtesy of the Cyber Hymnal™
T:Public Domain Courtesy of the Cyber Hymnal™
C:Ada Blenkhorn, 1895
Z:Public Domain
Z:Courtesy of the Cyber Hymnal™
%%score ( 1 2 ) 3 4
L:1/8
Q:1/4=90
M:4/4
K:C
V:1 treble 
V:2 treble 
V:3 treble 
V:4 bass 
V:1
 G>A | Gedc Bc G>A | B2 B2 B2 G>A | Gfed cBAB | A2 G2 G2 G>A |: Gedc BcGA | B2 B2 B2 B>B | %7
w: 1.~Ma- ny|stor- ies quaint and old- en Oft are|told to me; Some are|touched with grief and sad- ness, Oth- ers|full of glee; But there’s|one that’s sweet- er, dear- er, Than all|oth- er lays, ’Tis the|
w: 2.~Songs of|al- most heav’n- ly sweet- ness Fall up-|on my ear, Hap- py|songs of home and kin- dred, Fill- ing|me with cheer; One sur-|pass- ing all the oth- ers, In my|soul doth ring, ’Tis the|
w: 3.~Ma- ny|are the gifts I cher- ish, Friend- ship’s|to- ken true, Giv- ing|me ex- qui- site plea- sure, As they|meet my view; But there’s|one of price- less val- ue, Bless- ings|to im- part, ’Tis the|
 AABc dBGA | B2 A2 !fermata!G2 x2 ||"^Refrain" G>A x6 | [EG]2 e4 Bc/[Fd]/ | c2 G4 G>A | %12
w: sto- ry told by an- gels In the|old- en days.||||
w: song of peace and glo- ry Christ- mas|an- gels sing.|Sweet and|joy- ous is the ring-|ing, Of the bells,|
w: Christ child’s Christ- mas greet- ing, Trea- sured|in my heart.||||
 (z3/2 d4) G>A x/ | G2 c4 [EG]>[EG] | [FA]>[FA] [FA][GB] [Bd][Ac][GB][FA] | [EG]2 [Ec]2 [Ge]2 G>A | %16
w: ||||
w: * Christ- mas|bells; Full of beau-|ty is the sto- ry Each one glad-|ly tells, Christ- mas bells,|
w: ||||
 (G2 f4) [FB]2 | !fermata!c6"^Play 3 times" !fermata!E2 | x8 | x8 | x8 | x8 | x6 :| %23
w: |||||||
w: sweet * bells.|||||||
w: |||||||
V:2
 x2 | x8 | x8 | x8 | x8 |: x8 | x8 | x8 | x8 || x8 | x2 (E2 E>E F3/2) x/ | (E>E) (E>E E2) x2 | %12
 (G2 F<F F/ F2) x3/2 | (E>EE>E E2) x2 | x8 | x8 | x2 (G>G G2) x2 | E>EF>F x4 | x8 | x8 | x8 | x8 | %22
 x6 :| %23
V:3
 ([Ge][Fd]) | ([Ec][GB][FA][EG]) ([DF][CA][B,d][A,c]) | (BAGF) E2 .[Gce]2 | %3
 .[Gceg]2 [EAc]2 .[FAd]2 .[FGB]2 | !fermata![EGc]6 x2 |: z2 x6 | [G,CE]2 [G,CE]2 [G,CE]2 [G,CE]2 | %7
 [G,B,F]2 [G,B,F]2 [G,B,F]2 z2 | [G,B,F]2 [G,B,F]2 [G,B,F]2 [G,B,F]2 || %9
 [G,CE]2 [G,CE]2 [G,CE]2 z2 | [G,CE]2 [G,CE]2 [G,CE]2 [G,CG]2 | [B,DG]2 [B,DG]2 [B,DG]2 z2 | %12
 [A,D=F]2 [A,DF]2 [G,DG]2 [A,^CG]2 | [B,DG]2 [CD^F]2 !fermata![B,DG]2"^Play 3 times" x2 | x8 | x8 | %16
 x8 | x8 | x8 | x8 | x8 | x8 | x6 :| %23
V:4
 z2 | z8 | (G,A,B,G,) (CDED) | (CB,A,G,) (F,D,G,G,,) | (C,^F,,G,,F,, !fermata!D,,2) x2 |: z2 x6 | %6
w: ||||||
 C,2 G,,2 C,2 E,2 | D,2 D,2 G,,2 z2 | G,,2 B,,2 D,2 G,,2 || C,2 G,,2 C,2 z2 | C,2 G,,2 C,2 E,2 | %11
w: |||||
 D,2 D,2 D,2 z2 | C,2 C,2 B,,2 E,2 | D,2 D,,2 !fermata!G,,2 x2 | z2 x6 | %15
w: ||||
 [C,G,]2 [G,,G,]2 [C,G,]>[C,G,] [G,,G,]>[G,,G,] | [C,G,]>[C,G,] [C,G,]>[C,G,] [C,G,]2 z2 | %17
w: Sweet and joy- ous is the|ring- ing of the bells,|
 z3/2 [G,B,]/ [G,B,]>[G,B,] [G,B,]2 z2 | [C,C]>[C,C] [C,G,]>[C,G,] [C,G,]2 [C,C]>[C,C] | %19
w: The mer- ry, mer-|ry Christ- mas bells, * * *|
 [F,C]>[F,C] [F,C][F,C] [F,C][F,C][F,C][F,C] | [C,C]2 [C,G,]2 [C,C]2 z2 | %21
w: ||
 z2 [G,B,]>[G,B,] [G,B,]2 [G,,G,]2 | [C,G,]>[C,G,] [C,A,]>[C,A,] !fermata![C,G,]2"^Play 3 times" :| %23
w: Joy- ous bells, sweet,|mer- ry, Christ- mas bells.|

